components/Common/Svg/svgs/dribbleBlackIcon.svg

<svg
  width="35"
  height="35"
  viewBox="0 0 35 35"
  fill="none"
  xmlns="http://www.w3.org/2000/svg"
>
  <path
    d="M17.5 0C7.875 0 0 7.875 0 17.5C0 27.125 7.875 35 17.5 35C27.125 35 35 27.125 35 17.5C35 7.875 27.125 0 17.5 0ZM31.9375 16.625C28.1458 16.0417 24.7917 16.0417 21.5833 16.4792C21.2917 15.6042 20.8542 14.875 20.4167 14C23.7708 12.5417 26.5417 10.5 28.4375 8.02083C30.4792 10.5 31.7917 13.4167 31.9375 16.625ZM26.25 6.125C24.5 8.45833 22.0208 10.2083 18.9583 11.5208C17.5 8.75 15.8958 6.125 14 3.5C15.1667 3.20833 16.3333 3.0625 17.5 3.0625C20.8542 3.0625 23.9167 4.22917 26.25 6.125ZM10.9375 4.66667C12.8333 7.14583 14.5833 9.77083 16.0417 12.5417C12.5417 13.5625 8.3125 14 3.5 14.1458C4.52083 9.91667 7.29167 6.5625 10.9375 4.66667ZM3.0625 17.5V17.0625C8.60417 17.0625 13.5625 16.4792 17.5 15.1667C17.7917 15.8958 18.2292 16.625 18.5208 17.2083C13.5625 18.8125 9.47917 21.875 6.41667 26.6875C4.375 24.2083 3.0625 21 3.0625 17.5ZM8.60417 28.875C11.5208 24.3542 15.1667 21.4375 19.6875 20.125C21 23.625 22.0208 27.2708 22.6042 31.0625C17.7917 32.8125 12.5417 31.9375 8.60417 28.875ZM25.5208 29.4583C24.9375 25.9583 23.9167 22.6042 22.75 19.3958C25.5208 18.9583 28.4375 19.1042 31.7917 19.6875C31.0625 23.7708 28.875 27.2708 25.5208 29.4583Z"
    fill="#161616"
  ></path>
</svg>

<svg width="35" height="35" viewBox="0 0 35 35" fill="none" xmlns="http://www.w3.org/2000/svg"><path d="M17.5 0C7.875 0 0 7.875 0 17.5S7.875 35 17.5 35 35 27.125 35 17.5 27.125 0 17.5 0Zm14.438 16.625c-3.792-.583-7.146-.583-10.355-.146-.291-.875-.729-1.604-1.166-2.479 3.354-1.458 6.125-3.5 8.02-5.98 2.042 2.48 3.355 5.397 3.5 8.605Zm-5.688-10.5c-1.75 2.333-4.23 4.083-7.292 5.396A66.12 66.12 0 0 0 14 3.5a14.383 14.383 0 0 1 3.5-.438c3.354 0 6.417 1.167 8.75 3.063ZM10.937 4.667c1.896 2.479 3.646 5.104 5.105 7.875-3.5 1.02-7.73 1.458-12.542 1.604 1.02-4.23 3.792-7.584 7.438-9.48ZM3.064 17.5v-.438c5.541 0 10.5-.583 14.437-1.895.292.729.73 1.458 1.02 2.041-4.957 1.605-9.04 4.667-12.103 9.48C4.375 24.207 3.063 21 3.063 17.5Zm5.541 11.375c2.917-4.52 6.563-7.438 11.084-8.75 1.312 3.5 2.333 7.146 2.916 10.938a14.604 14.604 0 0 1-14-2.188Zm16.917.583c-.584-3.5-1.604-6.854-2.771-10.062 2.77-.438 5.688-.292 9.042.291-.73 4.084-2.917 7.584-6.271 9.771Z" fill="#161616"/></svg>
